X: 101
T: Wilton Lodge - a Strathspey
C: by Robt. Howison
B: John Pringle "Collection of Reels Strathspeys & Jigs", 1801 p.20#1
Z: 2011 John Chambers <jc:trillian.mit.edu>
Q: "Slow"
R: strathspey
M: C
L: 1/8
K: E
V: 1
   G | E>E~GB GEBG | F~FA>B cFeg | EEGB cABG | C>cBA GEE :|
|: B | e>Bc>A BEG2 | Fffg a>gf>e | g>fe>d c>BA>G | Cc~B>A GEE :|
|: G | E>EB,>E G,>EB,>E | F>FC>FA,>FC>F | E>EB,>E G,>EB,>e | c>AGF GEE :|
|: B | e>Bge d>Bfd | eBgf dfTfg | e>Bc>A BEG2 | Cc~B>A GEE :|
V: 2 clef=bass middle=d
   z | e2E2 e2g2 | f2c2 F2z2 | e2E2 A2G2 | A2B2 e2E :|
|: z | e2a2 g2e2 | B2b2 B2z2 | e2G2 A2E2 | A2B2 e2E :|
|: z | [e2E2][e2E2] [e2E2][e2E2] | [f2F2][f2F2] [f2F2][f2F2] \
     | [e2E2][e2E2] [e2E2][e2E2] | [a2A2][b2B2] [e2E2][eE] :|
|: z | g2e2 b2a2 | g2e2 b2B2 | g2a2 g2e2 | a2b2 e2E :|

%%sep 2 1 500

